src/svg/cubes.svg

<svg height="1000" width="1285.714" xmlns="http://www.w3.org/2000/svg"><path d="M357.12 910.72l214.272 -107.136v-175.212l-214.272 91.512v190.836zm-35.712 -253.332l225.432 -96.534 -225.432 -96.534 -225.432 96.534zm607.104 253.332l214.272 -107.136v-175.212l-214.272 91.512v190.836zm-35.712 -253.332l225.432 -96.534 -225.432 -96.534 -225.432 96.534zm-249.984 -163.494l214.272 -92.07v-148.428l-214.272 91.512v148.986zm-35.712 -211.482l246.078 -105.462 -246.078 -105.462 -246.078 105.462zm607.104 289.044v232.128q0 20.088 -10.602 37.386t-29.016 26.226l-249.984 124.992q-13.95 7.812 -31.806 7.812t-31.806 -7.812l-249.984 -124.992q-2.79 -1.116 -3.906 -2.232 -1.116 1.116 -3.906 2.232l-249.984 124.992q-13.95 7.812 -31.806 7.812t-31.806 -7.812l-249.984 -124.992q-18.414 -8.928 -29.016 -26.226t-10.602 -37.386v-232.128q0 -21.204 11.997 -39.06t31.527 -26.784l242.172 -103.788v-223.2q0 -21.204 11.997 -39.06t31.527 -26.784l249.984 -107.136q12.834 -5.58 27.9 -5.58t27.9 5.58l249.984 107.136q19.53 8.928 31.527 26.784t11.997 39.06v223.2l242.172 103.788q20.088 8.928 31.806 26.784t11.718 39.06z"/></svg>

<svg height="1000" width="1285.7" xmlns="http://www.w3.org/2000/svg"><path d="M357.1 910.7L571.4 803.6V628.3l-214.3 91.6v190.8zM321.4 657.4l225.5 -96.6L321.4 464.3 96 560.8zm607.2 253.3l214.3 -107.1V628.3l-214.3 91.6v190.8zM892.9 657.4l225.4 -96.6L892.9 464.3l-225.5 96.5zm-250 -163.5l214.2 -92.1V253.3l-214.2 91.6v149zM607.1 282.4L853.2 176.9 607.1 71.4 361 176.9zm607.2 289v232.2q0 20.1 -10.6 37.4t-29 26.2l-250 125q-14 7.8 -31.8 7.8T861 992.2l-250 -125q-2.7 -1.1 -3.9 -2.2 -1.1 1.1 -3.9 2.2l-250 125q-13.9 7.8 -31.8 7.8t-31.8 -7.8l-250 -125Q21.2 858.3 10.6 841T0 803.6V571.4q0 -21.2 12 -39t31.5 -26.8L285.7 401.8V178.6q0 -21.2 12 -39.1t31.5 -26.8L579.2 5.6Q592.1 0 607.1 0T635 5.6l250 107.1q19.6 9 31.6 26.8t12 39.1v223.2l242.2 103.8q20 8.9 31.8 26.8t11.7 39z"/></svg>
